!!!!SEGMENT: pl-kj--bj-muz-15425-iii--001_wieniawski-henryk--deux-mazurkas-de-salon-op-12-sielauka.krn
!!!cenid: 18xx:3827
!!!COM: Wieniawski, Henryk
!!!COM-rismID: pe137176
!!!CDT: 1835/07/10-1880/03/31
!!!CNT:
!!!GTL: Deux Mazurkas de Salon op. 12
!!!OTL: Sielauka
!!!PDT:
!!!AGN:
!!!SMS-siglum: PL-Kj
!!!SMS-shelfmark: BJ Muz. 15425 III
!!!SMS-shelfwork: 001 G
!!!SMS-variant: VIOLINO.: PL-Kj BJ Muz. 15425 III:5-9
!!!SMS-altvar: VIOLINO.: PL-Kj BJ Muz. 15425 III:16-18
!!!NIFC-rismSourceID:
!!!NIFC-rismChildID:
!!!NIFC-islandoraID:
!!!URL-pdf-islandora:
!!!URL-scan: https://polona.pl/item/deux-mazurkas-de-salon-pour-violon-avec-accompagnement-de-piano-op-12,ODM5NDU5NjA/2 @EN{Scan on Polona} @PL{Skany w portalu Polona}
!!!ONB-nifc: UWAGA: 1. Sielauka, 2. Chanson polonaise. Na podstawie partytury (SMS:variant), partia skrzypiec do SMS:altvar
!!!AIN: 2 piano 1 violn
!!!key: G
!!!OMD: SIELAUKA\nla Champêtre.
!!!OMD-mod: SIELANKA\nla Champêtre.
**kern	**kern	**dynam	**kern	**dynam
*	*	*	*scale:70%	*
*part3	*part2	*part2	*part1	*part1
*staff3	*staff2	*	*staff1	*
*I"PIANO.	*I"PIANO.	*	*I"VIOLINO.	*
*I'	*I'	*	*I'	*
*Ipiano	*Ipiano	*	*Ivioln	*
*ICklav	*ICklav	*	*ICstr	*
*IGacmp	*IGacmp	*	*IGsolo	*
*mI"Pianoforte	*mI"Pianoforte	*	*mI"Violino 	*
*mI'pf	*mI'pf	*	*mI'vl	*
*clefF4	*clefG2	*	*clefG2	*
*k[f#c#]	*k[f#c#]	*	*k[f#c#]	*
*G:	*G:	*	*G:	*
*M3/4	*M3/4	*	*M3/4	*
=1	=1	=1	=1	=1
!!LO:TX:t=:mod=Revue par Fr.Hermann.
!	!LO:TX:a:rj:t=1.:mod=	!LO:DY:a=2	!LO:TX:a:t=Revue par Fr.Hermann.:mod=	!
2AA 2DD/	2.r	p	2.r	.
4AA 4DD^>/	.	.	.	.
=2	=2	=2	=2	=2
2AA 2DD/	2.r	.	2.r	.
4AA 4DD^>/	.	.	.	.
=3	=3	=3	=3	=3
2AA 2DD/	2.r	.	2.r	.
4AA 4DD^>/	.	.	.	.
=4	=4	=4	=4	=4
*	*	*	*^	*
2AA 2DD/	2.r	.	4r	4rcyy	.
.	.	.	4r	4rcyy	.
4AA 4DD^>/	.	.	((8.dd^^/L	[4a\	p
.	.	.	16ff#/Jk)	.	.
=5	=5	=5	=5	=5	=5
2AA 2DD/	2.r	.	(8.ee/L	2.a\_	.
.	.	.	16gg/Jk)	.	.
.	.	.	(8.cc#/L	.	.
.	.	.	16ee/Jk)	.	.
4AA 4DD^>/	.	.	(8.dd/L	.	.
.	.	.	16ff#/Jk)	.	.
=6	=6	=6	=6	=6	=6
2AA 2DD/	2.r	.	(8.b/L	2.a\_	.
.	.	.	16dd/Jk)	.	.
.	.	.	(8.cc#/L	.	.
.	.	.	16ee/Jk)	.	.
4AA 4DD^>/	.	.	(8.cc#/L	.	.
.	.	.	16ee/Jk)	.	.
=7	=7	=7	=7	=7	=7
!	!	!	!LO:TX:a:t=H. Wieniawski, Op.12.:mod=	!	!
2AA 2DD/	2.r	.	(8.b/L	2.a\_	.
.	.	.	16dd/Jk)	.	.
.	.	.	(8.g/L	.	.
.	.	.	16b/Jk)	.	.
!LO:SIC:s=4AA 4DD^	!	!	!	!	!
4AA 4DD/	.	.	(8.a/L	.	.
.	.	.	16cc#/Jk)	.	.
!!LO:LB:g=original
=8	=8	=8	=8	=8	=8
2AA 2DD/	2.r	.	(8.f#/L	2.a\_	.
.	.	.	16a/Jk)	.	.
.	.	.	(8.g/L	.	.
.	.	.	16b/Jk)	.	.
!LO:SIC:s=4AA 4DD^	!	!	!	!	!
4AA 4DD/	.	.	(8.e/L	.	.
.	.	.	16g/Jk))	.	.
=9	=9	=9	=9	=9	=9
2AA 2DD/	2.r	.	(8.f#t/L	2.a\_	.
.	.	.	16d/Jk	.	.
.	.	.	2a/)	.	.
!LO:SIC:s=4AA 4DD^	!	!	!	!	!
4AA 4DD/	.	.	.	.	.
=10	=10	=10	=10	=10	=10
2AA 2DD/	2.r	.	(8.eT/L	2.a\_	.
.	.	.	16d/Jk	.	.
.	.	.	2dd/)	.	.
!LO:SIC:s=4AA 4DD^	!	!	!	!	!
4AA 4DD/	.	.	.	.	.
=11	=11	=11	=11	=11	=11
2AA 2DD/	2.r	.	(8.eT/L	2.a\_	.
.	.	.	16d/Jk	.	.
.	.	.	2ff#/)	.	.
!LO:SIC:s=4AA 4DD^	!	!	!	!	!
4AA 4DD/	.	.	.	.	.
=12	=12	=12	=12	=12	=12
2AA 2DD/	2.r	.	(8.eT/L	2.a\_	.
.	.	.	16d/Jk	.	.
.	.	.	[2aa/)	.	.
!LO:SIC:s=4AA 4DD^	!	!	!	!	!
4AA 4DD/	.	.	.	.	.
=13	=13	=13	=13	=13	=13
2AA 2DD/	2.r	.	2.aa/_	2.a\_	.
!LO:SIC:s=4AA 4DD^	!	!	!	!	!
4AA 4DD/	.	.	.	.	.
=14	=14	=14	=14	=14	=14
2AA 2DD/	2.r	.	2aa/]	2.a\]	.
!LO:SIC:s=4AA 4DD^	!	!	!	!	!
4AA 4DD/	.	.	((8.dd^^/L	.	p
.	.	.	16ff#/Jk)	.	.
=15	=15	=15	=15	=15	=15
2AA 2DD/	2.r	.	(8.ee/L	[2.a\	.
.	.	.	16gg/Jk)	.	.
.	.	.	(8.cc#/L	.	.
.	.	.	16ee/Jk)	.	.
!LO:SIC:s=4AA 4DD^	!	!	!	!	!
4AA 4DD/	.	.	(8.dd/L	.	.
.	.	.	16ff#/Jk)	.	.
!!LO:LB:g=original
=16	=16	=16	=16	=16	=16
2AA 2DD/	2.r	.	(8.b/L	2.a\_	.
.	.	.	16dd/Jk)	.	.
.	.	.	(8.cc#/L	.	.
.	.	.	16ee/Jk)	.	.
!LO:SIC:s=4AA 4DD^	!	!	!	!	!
4AA 4DD/	.	.	(8.a/L	.	.
.	.	.	16cc#/Jk)	.	.
=17	=17	=17	=17	=17	=17
2AA 2DD/	2.r	.	(8.b/L	2.a\_	.
.	.	.	16dd/Jk)	.	.
.	.	.	(8.g/L	.	.
.	.	.	16b/Jk)	.	.
!LO:SIC:s=4AA 4DD^	!	!	!	!	!
4AA 4DD/	.	.	(8.a/L	.	.
.	.	.	16cc#/Jk))	.	.
=18	=18	=18	=18	=18	=18
2AA 2DD/	2.r	.	(8.f#/L	2.a\_	.
.	.	.	16a/Jk)	.	.
.	.	.	(8.g/L	.	.
.	.	.	16b/Jk)	.	.
!LO:SIC:s=4AA 4DD^	!	!	!	!	!
4AA 4DD/	.	.	(8.e/L	.	.
.	.	.	16g/Jk)	.	.
=19	=19	=19	=19	=19	=19
2AA 2DD/	2.r	.	(8.f#t/L	2.a\_	.
.	.	.	16d/Jk	.	.
.	.	.	2a/)	.	.
!LO:SIC:s=4AA 4DD^	!	!	!	!	!
4AA 4DD/	.	.	.	.	.
=20	=20	=20	=20	=20	=20
2AA 2DD/	2.r	.	(8.eT/L	2.a\_	.
.	.	.	16d/Jk	.	.
.	.	.	2dd/)	.	.
!LO:SIC:s=4AA 4DD^	!	!	!	!	!
4AA 4DD/	.	.	.	.	.
=21	=21	=21	=21	=21	=21
!	!LO:TX:b:t=dimi-nuen-do.:problem:dynamics with extention lines:mod=	!LO:HP:t=dimi-nuen-do.:ext=cd	!	!LO:TX:b:t=dimi-nuen-do:problem:dynamics with extention lines:mod=	!LO:HP:t=dimi-nuen-do:ext=cd
2AA 2DD/	2.r	>	(8.eT/L	2.a\_	>
.	.	.	16d/Jk	.	.
.	.	.	2aa/)	.	.
!LO:SIC:s=4AA 4DD^	!	!	!	!	!
4AA 4DD/	.	.	.	.	.
=22	=22	=22	=22	=22	=22
2AA 2DD/	2.r	.	(8.eT/L	2.a\_	.
.	.	.	16d/Jk	.	.
.	.	.	[2ddd/)	.	.
!LO:SIC:s=4AA 4DD^	!	!	!	!	!
4AA 4DD/	.	]	.	.	]
=23	=23	=23	=23	=23	=23
2.AA 2.DD;/	2.r;	.	2.ddd;\]	2.a\]	pp
*	*	*	*v	*v	*
!!LO:PB:g=original
=24	=24	=24	=24	=24
*	*	*	*8va	*
!!LO:TX:B:t=:mod=A
!	!LO:MO:mod=!LO&colon;TX&colon;i&colon;t=a tempo tranquillo	!	!	!
!	!LO:TX:b:i:t=a tempo tranquillo	!	!LO:TX:a:B:t=A:mod=	!
2.r	2.r	.	8r	.
!	!	!	! 	!
!	!	!	!LO:TX:a:i:t=a tempo tranquillo	!
!	!	!	!LO:N:n=2:vis=2	!
.	.	.	8aaaL 8rddd 8raa`<\	sf
!	!	!	!LO:TX:b:i:t=du talon	!
!	!	!	!LO:N:n=2:vis=2	!
.	.	.	8bbb 8reee 8rbb`<\	<
!	!	!	!LO:N:n=2:vis=2	!
.	.	.	8cccc# 8rfff# 8rccc#X`<\	.
!	!	!	!LO:N:n=2:vis=2	!
.	.	.	8dddd 8rggg 8rddd`<\	.
!	!	!	!LO:N:n=2:vis=2	!
.	.	.	8eeeeJ 8raaa 8reee`<\	[
*clefG2	*	*	*	*
=25	=25	=25	=25	=25
!	!	!LO:DY:a=2	!LO:N:n=2:vis=2	!
4aa 4dd\	4fffn 4ddd\	p	8.ffffnL 8.rbbb-X 8.rfffnX\	.
!	!	!	!LO:N:n=2:vis=2	!
.	.	.	16ggggJk 16rccccnX 16rggg\	.
!	!	!	!LO:N:n=2:vis=2	!
4r	4r	.	8ffffL 8rbbb- 8rfff\	.
!	!	!	!LO:N:n=2:vis=2	!
.	.	.	8eeee 8raaa 8reee\	.
!	!	!	!LO:N:n=2:vis=2	!
4aa 4dd\	4fff 4ddd\	.	8dddd 8rggg 8rddd\	.
!	!	!	!LO:N:n=2:vis=2	!
.	.	.	8ccccnJ 8rfffnX 8rcccnX\	.
=26	=26	=26	=26	=26
!	!	!	!LO:N:n=2:vis=2	!
4bb-X 4gg\	4eee 4ddd\	.	8.bbb-XL 8.reee-X 8.rbb-X\	.
!	!	!	!LO:N:n=2:vis=2	!
.	.	.	16ccccnJk 16rfffnX 16rcccnX\	.
!	!	!	!LO:N:n=2:vis=2	!
4r	4r	.	8bbb-L 8reee- 8rbb-\	.
!	!	!	!LO:N:n=2:vis=2	!
.	.	.	8aaa 8rddd 8raa\	.
!	!	!	!LO:N:n=2:vis=2	!
4bb- 4gg\	4eee 4ddd\	.	8ggg 8rccc 8rgg\	.
!	!	!	!LO:N:n=2:vis=2	!
.	.	.	8fffnJ 8rbb-X 8rffnX\	.
=27	=27	=27	=27	=27
!	!	!	!LO:N:n=2:vis=2	!
4aa\	4eee 4ccc#X\	.	8.eeeL 8.raa 8.ree/	.
!	!	!	!LO:N:n=2:vis=2	!
.	.	.	16dddJk 16rgg 16rdd/	.
!	!	!	!LO:N:n=2:vis=2	!
4r	4r	.	4ccc#X 4rff#X 4rcc#X/	.
!	!	!	!LO:N:n=2:vis=2	!
4aa\	4eee 4ccc#\	.	4aaa 4rddd 4raa\	.
=28	=28	=28	=28	=28
!	!	!	!LO:N:n=2:vis=2	!
4aa 4dd\	4fffn 4ddd\	.	8.fffnL 8.rbb-X 8.rffnX\	.
!	!	!	!LO:N:n=2:vis=2	!
.	.	.	16eeeJk 16raa 16ree\	.
!	!	!	!LO:N:n=2:vis=2	!
4r	4r	.	4ddd 4rgg 4rdd/	.
!	!	!	!LO:N:n=2:vis=2	!
4aa 4dd\	4fff 4ddd\	.	4ffffn 4rbbb-X 4rfffnX\	.
=29	=29	=29	=29	=29
*	*8va	*	*	*
*	*^	*	*	*
!	!	!	!	!LO:N:n=2:vis=2	!
2aa [2ee\	8.eee/L	2.ccc#\	.	8.eeeeL 8.raaa 8.reee\	.
!	!	!	!	!LO:N:n=2:vis=2	!
.	16aaa/Jk	.	.	16cccc#Jk 16rfff# 16rccc#\	.
!	!	!	!	!LO:N:n=2:vis=2	!
.	4cccc# 4eee/	.	.	4aaa 4rddd 4raa\	.
!	!	!	!	!LO:N:n=2:vis=2	!
4gg#X 4ee\]	4eeee 4eee 4ddd\	.	.	8bbbL 8reee 8rbb\	.
!	!	!	!	!LO:N:n=2:vis=2	!
.	.	.	.	8cccc#J 8rfff# 8rccc#\	.
*	*v	*v	*	*	*
=30	=30	=30	=30	=30
!	!	!	!LO:N:n=2:vis=2	!
4aa: 4ee: 4a:\	4eeee: 4eee: 4ccc#:\	.	4aaa 4rddd 4raa\	.
*	*X8va	*	*	*
!	!	!	!LO:N:n=2:vis=2	!
4r	4r	.	4aa 4rdd 4ra/	.
4r	4r	.	4r	.
!!LO:LB:g=original
=31	=31	=31	=31	=31
2.r	2.r	.	8r	.
!	!	!	!LO:N:n=2:vis=2	!
.	.	.	8aaaL 8rddd 8raa\	.
!	!	!	!LO:N:n=2:vis=2	!
.	.	.	8bbb 8reee 8rbb\	.
!	!	!	!LO:N:n=2:vis=2	!
.	.	.	8cccc# 8rfff# 8rccc#\	.
!	!	!	!LO:N:n=2:vis=2	!
.	.	.	8dddd 8rggg 8rddd\	.
!	!	!	!LO:N:n=2:vis=2	!
.	.	.	8eeeeJ 8raaa 8reee\	.
=32	=32	=32	=32	=32
!	!	!	!LO:N:n=2:vis=2	!
4aa 4dd\	4fffn 4ddd\	.	8.ffffnL 8.rbbb-X 8.rfffnX\	.
!	!	!	!LO:N:n=2:vis=2	!
.	.	.	16ggggJk 16rccccn 16rggg\	.
!	!	!	!LO:N:n=2:vis=2	!
4r	4r	.	8ffffL 8rbbb- 8rfff\	.
!	!	!	!LO:N:n=2:vis=2	!
.	.	.	8eeee 8raaa 8reee\	.
!	!	!	!LO:N:n=2:vis=2	!
4aa 4dd\	4fff 4ddd\	.	8dddd 8rggg 8rddd\	.
!	!	!	!LO:N:n=2:vis=2	!
.	.	.	8ccccnJ 8rfffnX 8rcccnX\	.
=33	=33	=33	=33	=33
!	!	!	!LO:N:n=2:vis=2	!
4bb-X 4gg\	4eee 4ddd\	.	8.bbb-XL 8.reee-X 8.rbb-X\	.
!	!	!	!LO:N:n=2:vis=2	!
.	.	.	16ccccnJk 16rfffnX 16rcccnX\	.
!	!	!	!LO:N:n=2:vis=2	!
4r	4r	.	8bbb-L 8reee- 8rbb-\	.
!	!	!	!LO:N:n=2:vis=2	!
.	.	.	8aaa 8rddd 8raa\	.
!	!	!	!LO:N:n=2:vis=2	!
4bb- 4gg\	4eee 4ddd\	.	8ggg 8rccc 8rgg\	.
!	!	!	!LO:N:n=2:vis=2	!
.	.	.	8fffnJ 8rbb- 8rffnX\	.
=34	=34	=34	=34	=34
!	!	!	!LO:N:n=2:vis=2	!
4aa\	4eee 4ccc#X\	.	8.eeeL 8.aa 8.ee/	.
!	!	!	!LO:N:n=2:vis=2	!
.	.	.	16dddJk 16rgg 16rdd/	.
!	!	!	!LO:N:n=2:vis=2	!
4r	4r	.	4ccc#X 4rff# 4rcc#X/	.
!	!	!	!LO:N:n=2:vis=2	!
4aa\	4eee 4ccc#\	.	4aaa 4rddd 4raa\	.
=35	=35	=35	=35	=35
!	!	!	!LO:N:n=2:vis=2	!
4aa 4dd\	4fffn 4ddd\	.	8.fffnL 8.rbb-X 8.rffnX\	.
!	!	!	!LO:N:n=2:vis=2	!
.	.	.	16eeeJk 16raa 16ree\	.
!	!	!	!LO:N:n=2:vis=2	!
4r	4r	.	4ddd 4rgg 4rdd/	.
!	!	!	!LO:N:n=2:vis=2	!
4aa 4dd\	4fff 4ddd\	.	4ffffn 4rbbb-X 4rfff\	.
=36	=36	=36	=36	=36
!	!	!	!LO:N:n=2:vis=2	!
4bb-X 4g\	4eee 4ddd\	.	8.eeeeL 8.raaa 8.reee\	.
!	!	!	!LO:N:n=2:vis=2	!
.	.	.	16ggggJk 16rcccc# 16rggg\	.
!	!	!	!LO:N:n=2:vis=2	!
4r	4r	.	4bbbb-X 4reeee-X 4rbbb-X\	.
!	!	!	!LO:N:n=2:vis=2	!
4gg 4a\	4eee 4ccc#X\	.	4cccc#X 4rfff# 4rccc#X\	.
=37	=37	=37	=37	=37
!	!	!	!LO:N:n=2:vis=2	!
4dd 4a 4d/	4ddd 4ffn\	.	4dddd 4rggg 4rddd\	.
4r	4r	.	2ddd 2rgg 2rdd/	.
4r	4r	.	.	.
*clefF4	*	*	*X8va	*
!!LO:LB:g=original
=38	=38	=38	=38	=38
!	!	!	!LO:N:n=2:vis=2	!
2G\	2dd 2b-X 2e/	.	(16eeeLL 16raa 16ree^<\	.
!	!	!	!LO:N:n=2:vis=2	!
.	.	.	16fffn 16rbb-X 16rffn^<\	.
!	!	!	!LO:N:n=2:vis=2	!
.	.	.	16ggg 16rccc# 16rgg^<\	.
!	!	!	!LO:N:n=2:vis=2	!
.	.	.	16aaaJJ 16rddd 16raa^<\	.
!	!	!	!LO:N:n=2:vis=2	!
.	.	.	4bbb-X 4reee-X 4rbb-X^<\)	.
!	!	!	!LO:N:n=2:vis=2	!
4A\	4cc#X 4g 4e/	.	(4ccc#X 4rf# 4rc#X\	.
=39	=39	=39	=39	=39
!	!	!	!LO:N:n=2:vis=2	!
2A 2D\	4dd 4fn 4d/	.	4ddd 4rg 4rd\)	.
.	4r	.	(2aa 2rd (2rA^\	.
4A 4D\	4a 4g 4c#/	.	.	.
=40	=40	=40	=40	=40
!	!	!	!LO:N:n=2:vis=2	!
2AA 2DD/	4a 4fn 4d/	.	4ddd 4rg 4rd\))	.
.	4r	.	(2aa 2rd 2rA^\	.
*	*clefF4	*	*	*
!	!	!	!	!LO:MO:mod=!null:null
!	!	!	!	!LO:HP:a
4AA 4DD/	4c# 4A 4G\	.	.	<
=41	=41	=41	=41	=41
!	!	!	!	!LO:MO:mod=!null:null
!	!	!	!	!LO:HP:a
2AA 2DD/	4d 4A 4Fn\	.	[2.ddd [<2.rg [2.rd\)	[ >
.	4r	.	.	]
4AA 4DD/	4r	.	.	.
=42	=42	=42	=42	=42
*	*	*	*^	*
!	!	!	!	!	!LO:DY:a
2AA 2DD/	2.r	.	2ddd] 2rg] 2rd\]	4rcyy	p
.	.	.	.	4rcyy	.
4AA 4DD/	.	.	((8.dd/L	4a\	p
.	.	.	16ff#/Jk)	.	.
=43	=43	=43	=43	=43	=43
2AA 2DD/	2.r	.	(8.ee/L	[2.a\	.
.	.	.	16gg/Jk)	.	.
.	.	.	(8.cc#/L	.	.
.	.	.	16ee/Jk)	.	.
4AA 4DD^>/	.	.	(8.dd/L	.	.
.	.	.	16ff#/Jk)	.	.
!!LO:LB:g=original
=44	=44	=44	=44	=44	=44
2AA 2DD/	2.r	.	(8.b/L	2.a\_	.
.	.	.	16dd/Jk)	.	.
.	.	.	(8.cc#/L	.	.
.	.	.	16ee/Jk)	.	.
4AA 4DD^>/	.	.	(8.a/L	.	.
.	.	.	16cc#/Jk)	.	.
=45	=45	=45	=45	=45	=45
2AA 2DD/	2.r	.	(8.b/L	2.a\_	.
.	.	.	16dd/Jk)	.	.
.	.	.	(8.g/L	.	.
.	.	.	16b/Jk)	.	.
4AA 4DD^>/	.	.	(8.a/L	.	.
.	.	.	16cc#/Jk)	.	.
=46	=46	=46	=46	=46	=46
2AA 2DD/	2.r	.	(8.f#/L	2.a\_	.
.	.	.	16a/Jk)	.	.
.	.	.	(8.g/L	.	.
.	.	.	16b/Jk)	.	.
4AA 4DD^>/	.	.	(8.e/L	.	.
.	.	.	16g/Jk))	.	.
=47	=47	=47	=47	=47	=47
2AA 2DD/	2.r	.	(8.f#t/L	2.a\_	.
.	.	.	16d/Jk	.	.
.	.	.	2a^/)	.	.
4AA 4DD^>/	.	.	.	.	.
=48	=48	=48	=48	=48	=48
2AA 2DD/	2.r	.	(8.eT/L	2.a\_	.
.	.	.	16d/Jk	.	.
.	.	.	2dd/)	.	.
!LO:SIC:s=4AA 4DD^	!	!	!	!	!
4AA 4DD/	.	.	.	.	.
=49	=49	=49	=49	=49	=49
2AA 2DD/	2.r	.	(8.eT/L	2.a\_	.
.	.	.	16d/Jk	.	.
.	.	.	2ff#/)	.	.
!LO:SIC:s=4AA 4DD^	!	!	!	!	!
4AA 4DD/	.	.	.	.	.
=50	=50	=50	=50	=50	=50
2AA 2DD/	2.r	.	(8.eT/L	2.a\_	.
.	.	.	16d/Jk	.	.
.	.	.	[2aa/)	.	.
!LO:SIC:s=4AA 4DD^	!	!	!	!	!
4AA 4DD/	.	.	.	.	.
!!LO:PB:g=original
=51	=51	=51	=51	=51	=51
2AA 2DD/	2.r	.	2.aa/_	2.a\_	.
!LO:SIC:s=4AA 4DD^	!	!	!	!	!
4AA 4DD/	.	.	.	.	.
=52	=52	=52	=52	=52	=52
2AA 2DD/	2.r	.	2aa/]	2.a\_	.
!LO:SIC:s=4AA 4DD^	!	!	!	!	!
4AA 4DD/	.	.	((8.dd/L	.	.
.	.	.	16ff#/Jk)	.	.
=53	=53	=53	=53	=53	=53
2AA 2DD/	2.r	.	(8.ee/L	2.a\_	.
.	.	.	16gg/Jk)	.	.
.	.	.	(8.cc#/L	.	.
.	.	.	16ee/Jk)	.	.
!LO:SIC:s=4AA 4DD^	!	!	!	!	!
4AA 4DD/	.	.	(8.dd/L	.	.
.	.	.	16ff#/Jk)	.	.
=54	=54	=54	=54	=54	=54
2AA 2DD/	2.r	.	(8.b/L	2.a\_	.
.	.	.	16dd/Jk)	.	.
.	.	.	(8.cc#/L	.	.
.	.	.	16ee/Jk)	.	.
!LO:SIC:s=4AA 4DD^	!	!	!	!	!
4AA 4DD/	.	.	(8.a/L	.	.
.	.	.	16cc#/Jk)	.	.
=55	=55	=55	=55	=55	=55
2AA 2DD/	2.r	.	(8.b/L	2.a\_	.
.	.	.	16dd/Jk)	.	.
.	.	.	(8.g/L	.	.
.	.	.	16b/Jk)	.	.
!LO:SIC:s=4AA 4DD^	!	!	!	!	!
4AA 4DD/	.	.	(8.a/L	.	.
.	.	.	16cc#/Jk))	.	.
=56	=56	=56	=56	=56	=56
2AA 2DD/	2.r	.	(8.f#/L	2.a\_	.
.	.	.	16a/Jk)	.	.
.	.	.	(8.g/L	.	.
.	.	.	16b/Jk)	.	.
!LO:SIC:s=4AA 4DD^	!	!	!	!	!
4AA 4DD/	.	.	(8.e/L	.	.
.	.	.	16g/Jk)	.	.
!!LO:LB:g=original
=57	=57	=57	=57	=57	=57
2AA 2DD/	2.r	.	(8.f#t/L	2.a\_	.
.	.	.	16d/Jk	.	.
.	.	.	2a/)	.	.
!LO:SIC:s=4AA 4DD^	!	!	!	!	!
4AA 4DD/	.	.	.	.	.
=58	=58	=58	=58	=58	=58
2AA 2DD/	2.r	.	(8.eT/L	2.a\_	.
.	.	.	16d/Jk	.	.
.	.	.	2dd/)	.	.
!LO:SIC:s=4AA 4DD^	!	!	!	!	!
4AA 4DD/	.	.	.	.	.
=59	=59	=59	=59	=59	=59
2AA 2DD/	2.r	.	(8.eT/L	2.a\_	.
.	.	.	16d/Jk	.	.
.	.	.	2aa/)	.	.
!LO:SIC:s=4AA 4DD^	!	!	!	!	!
4AA 4DD/	.	.	.	.	.
=60	=60	=60	=60	=60	=60
2AA 2DD/	2.r	.	(8.eT/L	2.a\_	.
.	.	.	16d/Jk	.	.
.	.	.	[2ddd/)	.	.
*kcancel	*kcancel	*	*kcancel	*kcancel	*
!LO:SIC:s=4AA 4DD^	!	!	!	!	!
4AA 4DD/	.	.	.	.	.
=61	=61	=61	=61	=61	=61
2.AA 2.DD;/	2.r;	.	2.ddd;/]	2.a;\]	.
*	*	*	*v	*v	*
*	*clefG2	*	*	*
!	!	!	!LO:TX:a:B:t=B:mod=	!
=62||	=62||	=62||	=62||	=62||
!!!OMD:
!!!OMD-mod: Marziale
*k[f#]	*k[f#]	*	*k[f#]	*
*G:	*G:	*	*G:	*
!!LO:TX:B:t=:mod=B
!	!LO:TX:a:i:t=Marziale.:mod=	!	!LO:TX:a:i:t=Marziale.:mod=	!LO:DY:rj
4GG 4GGG/	4r	f	8gg 8b 8d 8G/	f
.	.	.	8r	.
.	.	.	(>8qgg 8qb/	.
4r	4g 4d 4B/	.	8ggg 8bb\)	.
.	.	.	8r	.
.	.	.	(>8qggg 8qbb/	.
4GG 4GGG/	4g 4d 4B/	.	(8.ggL 8.b\	.
.	.	.	16ff#Jk 16dd\))	.
=63	=63	=63	=63	=63
4C 4CC/	4r	.	8.eeL 8.cc 8.g 8.c/	.
.	.	.	16dd#X/Jk	.
4r	4g 4e 4c/	.	4ee\	.
4AA 4AAA/	4a 4e 4c/	.	4ccc 4a\	.
!!LO:LB:g=original
=64	=64	=64	=64	=64
4D 4DD/	4r	.	8ff#L 8a 8d\	.
.	.	.	8ggJ 8b 8d\	.
.	.	.	(8qbb/	.
4r	4f# 4d 4c/	.	8aaL 8cc 8d\)	.
.	.	.	8gg#XJ 8cc 8d\	.
4D 4DD/	4f# 4d 4c/	.	8aaL 8cc 8d\	.
.	.	.	8aa#XJ 8cc 8d\	.
=65	=65	=65	=65	=65
4G 4GG/	4r	.	8bb 8b 8d 8G/	.
!	!	!	!LO:TUP:a:problem:klamra łukowa	!
.	.	.	24aaLL 24b\	.
.	.	.	24bb 24b\	.
.	.	.	24aaJJ 24b\	.
4r	4g 4d 4B/	.	8ggL 8b\	.
.	.	.	8eeJ 8b\	.
4D 4DD/	4f# 4d 4c/	.	8ddL 8d\	.
.	.	.	8ff#J 8a 8d\	.
=66	=66	=66	=66	=66
4GG 4GGG/	4r	.	8gg 8b 8d 8G/	.
.	.	.	8r	.
.	.	.	(>8qgg 8qb/	.
4r	4g 4d 4B/	.	8ggg 8bb\)	.
.	.	.	8r	.
.	.	.	(>8qggg 8qbb/	.
4GG 4GGG/	4g 4d 4B/	.	(8.ggL 8.b\	.
.	.	.	16ff#Jk 16dd\))	.
=67	=67	=67	=67	=67
4C 4CC/	4r	.	8.eeL 8.cc 8.g 8.c/	.
.	.	.	16dd#X/Jk	.
4r	4g 4e 4c/	.	4ee\	.
4AA 4AAA/	4a 4e 4c/	.	4eeee\	.
=68	=68	=68	=68	=68
4D 4DD/	4r	.	(16d/KL	.
.	.	.	8ee/J)	.
.	.	.	16r	.
4r	4f# 4d 4c/	.	8dd/L	.
.	.	.	8cc/	.
4D 4DD/	4f# 4d 4c/	.	8e/	.
.	.	.	8f#/J	.
=69	=69	=69	=69	=69
4G 4GG/	4g 4d 4B/	.	4g/	.
4G 4D 4BB 4GG/	4gg 4dd 4b 4g\	.	4gg 4b 4d 4G/	.
4r	4r	.	4r	.
=70	=70	=70	=70	=70
4GG 4GGG/	4r	.	8gg 8b 8d 8G/	.
.	.	.	8r	.
.	.	.	(>8qgg 8qb/	.
4r	4g 4d 4B/	.	8ggg 8bb\)	.
.	.	.	8r	.
.	.	.	(>8qggg 8qbb/	.
4GG 4GGG/	4g 4d 4B/	.	(8.ggL 8.b\	.
.	.	.	16ff#Jk 16dd\))	.
!!LO:LB:g=original
=71	=71	=71	=71	=71
4C 4CC/	4r	.	8.eeL 8.cc 8.g 8.c/	.
.	.	.	16dd#X/Jk	.
4r	4g 4e 4c/	.	4ee\	.
4AA 4AAA/	4a 4e 4c/	.	4ccc 4a\	.
=72	=72	=72	=72	=72
4D 4DD/	4r	.	8ff#L 8a 8d\	.
.	.	.	8ggJ 8b 8d\	.
.	.	.	(8qbb/	.
4r	4f# 4d 4c/	.	8aaL 8cc 8d\)	.
.	.	.	8gg#XJ 8cc 8d\	.
4D 4DD/	4f# 4d 4c/	.	8aaL 8cc 8d\	.
.	.	.	8aa#XJ 8cc 8d\	.
=73	=73	=73	=73	=73
4G 4GG/	4r	.	8bb 8b 8d 8G/	.
!	!	!	!LO:TUP:a:problem:klamra łukowa	!
.	.	.	24aaLL 24b\	.
.	.	.	24bb 24b\	.
.	.	.	24aaJJ 24b\	.
4r	4g 4d 4B/	.	8ggL 8b\	.
.	.	.	8eeJ 8b\	.
4D 4DD/	4f# 4d 4c/	.	8ddL 8d\	.
.	.	.	8ff#J 8a 8d\	.
=74	=74	=74	=74	=74
4GG 4GGG/	4r	.	8gg 8b 8d 8G/	.
.	.	.	8r	.
.	.	.	(>8qgg 8qb/	.
4r	4g 4d 4B/	.	8ggg 8bb\)	.
.	.	.	8r	.
.	.	.	(8qggg 8qbb/	.
4GG 4GGG/	4g 4d 4B/	.	8.ggL 8.b\)	.
.	.	.	16ff#Jk 16dd\	.
=75	=75	=75	=75	=75
4C 4CC/	4r	.	8.eeL 8.cc 8.g 8.c/	.
.	.	.	16dd#X/Jk	.
4r	4g 4e 4c/	.	4ee\	.
4AA 4AAA/	4a 4e 4c/	.	4eeee\	.
=76	=76	=76	=76	=76
4D 4DD/	4r	.	(16d/KL	.
.	.	.	8ee/J)	.
.	.	.	16r	.
4r	4f# 4d 4c/	.	8dd/L	.
.	.	.	8cc/	.
4D 4DD/	4f# 4d 4c/	.	8e/	.
.	.	.	8f#/J	.
=77	=77	=77	=77	=77
4G 4GG/	4g 4d 4B/	.	4g/	.
4G 4D 4BB 4GG/	4gg 4dd 4b 4g\	.	4gg 4b 4d 4G/	.
4r	4r	.	4b\	p
!!LO:PB:g=original
=78	=78	=78	=78	=78
*	*	*^	*	*
!!LO:TX:B:t=:mod=C
!	!	!	!	!LO:TX:a:B:rj:t=C:mod=	!
!	!	!	!	!LO:MO:mod=!LO&colon;TX&colon;i&colon;t=tranquillo	!
!	!	!LO:MO:null:mod=.	!LO:DY:b=2	!LO:TX:b:i:t=tranquillo	!
2.D#X^\	4r	p	sf	8.ccT\L	<
.	.	.	.	16b\Jk	.
!	!	!LO:MO:null:mod=p	!	!	!
.	4a 4f# 4B/	.	.	4ff#\	[
.	4a 4f# 4B/	.	.	4r	.
*	*	*v	*v	*	*
=79	=79	=79	=79	=79
!	!	!LO:DY:b=2	!	!
2.E^\	4r	sf	8.ccT\L	<
.	.	.	16b\Jk	.
.	4g 4e 4B/	.	4gg\	[
.	4g 4e 4B/	.	4r	.
=80	=80	=80	=80	=80
2.F#\	4r	.	8.ccT\L	<
.	.	.	16b\Jk	.
.	4a 4d#X 4B/	.	4aa\	[
.	4a 4d# 4B/	.	4r	.
=81	=81	=81	=81	=81
2.G\	4r	.	8.ccT\L	<
.	.	.	16b\Jk	.
.	4b 4g 4e 4B/	.	[2bb\	[
.	4b 4g 4e 4B/	.	.	.
=82	=82	=82	=82	=82
2.GG/	4r	.	8bb\L]	<
.	.	.	8bb\	.
.	4g 4e 4B/	.	8bb\	.
.	.	.	8bb\	.
.	4g 4e 4B/	.	8bb\	.
.	.	.	8bb\J	.
=83	=83	=83	=83	=83
2.AA/	4r	.	8ddd^\L	.
.	.	.	8ccc^\	.
.	4f# 4e 4c/	.	8bb^\	.
.	.	.	8aa^\	.
.	4f# 4e 4c/	.	8gg^\	.
.	.	.	8ff#^\J	[
=84	=84	=84	=84	=84
2.BB/	4r	.	8.b\L	.
.	.	.	16ee\Jk	.
.	4g 4e 4B/	.	4gg\	>
.	4a 4d#X 4B/	.	4ff#\	.
=85	=85	=85	=85	=85
2.E\	4r	.	8.eeT\L	.
.	.	.	16dd#X\Jk	.
.	4g 4e 4B/	.	4ee\	.
.	4g 4e 4B/	.	4b\	]
!!LO:LB:g=original
=86	=86	=86	=86	=86
2.D#X\	4r	.	8.ccT\L	<
.	.	.	16b\Jk	.
.	4a 4f# 4B/	.	4ff#\	[
.	4a 4f# 4B/	.	4r	.
=87	=87	=87	=87	=87
2.E\	4r	.	8.ccT\L	<
.	.	.	16b\Jk	.
.	4g 4e 4B/	.	4gg\	[
.	4g 4e 4B/	.	4r	.
=88	=88	=88	=88	=88
2.F#\	4r	.	8.ccT\L	<
.	.	.	16b\Jk	.
.	4a 4d#X 4B/	.	4aa\	[
.	4a 4d# 4B/	.	4r	.
=89	=89	=89	=89	=89
2.G\	4r	.	8.ccT\L	<
.	.	.	16b\Jk	.
.	4b 4g 4e 4B/	.	[2bb\	[
.	4b 4g 4e 4B/	.	.	.
=90	=90	=90	=90	=90
2.GG/	4r	.	8bb\L]	.
.	.	.	8bb\	<
.	4g 4e 4B/	.	8bb\	.
.	.	.	8bb\	.
.	4g 4e 4B/	.	8bb\	.
.	.	.	8bb\J	[[
=91	=91	=91	=91	=91
2.AA/	4r	.	16ddd\LL	.
.	.	.	16ccc\	.
.	.	.	16ddd\	.
.	.	.	16ccc\JJ	.
.	4f# 4e 4c/	.	(16ddd^\LL	.
.	.	.	16ccc^\	.
.	.	.	16bb^\	.
.	.	.	16aa^\JJ	.
.	4f# 4e 4c/	.	16gg^\LL	.
.	.	.	16ff#^\	.
.	.	.	16ee^\	.
.	.	.	16cc^\JJ)	.
=92	=92	=92	=92	=92
*	*^	*	*	*
2.BB/	4r	2rcyy	.	(8b/L	.
!	!	!	!	!LO:MO:mod=!LO&colon;TX&colon;i&colon;t=rall.	!
!	!	!	!	!LO:TX:b:i:t=rall.	!
.	.	.	.	16a#X/L	.
.	.	.	.	16b/JJ)	.
!	!LO:TX:b:i:t=rall.	!	!	!	!
.	4g 4e 4B/	.	.	(4.bb\	.
.	4a 4B/	(8d#X\L	.	.	.
.	.	8f#\J)	.	8dd#X\)	.
*	*v	*v	*	*	*
=93	=93	=93	=93	=93
2.E\	4r	.	(8.eeT\L	.
.	.	.	16dd#X\Jk)	.
.	4g 4e 4B/	.	2ee\	.
.	4g 4e 4B/	.	.	.
!!LO:LB:g=original
=94	=94	=94	=94	=94
*	*^	*	*	*
!!!OMD:
!!!OMD-mod: Vigoroso
!!LO:TX:B:t=:mod=D
!	!	!	!	!LO:TX:a:i:t=Vigoroso.:mod=	!
!	!LO:TX:b:i:t=Vigoroso.:mod=	!	!LO:DY:rj	!LO:TX:a:B:rj:t=D:mod=	!
2f# 2A 2D\	[4aa/	[2dd [2cc\	ff	8.aaL 8.a 8.d\	ff
.	.	.	.	(16bbJk ([16cc\	.
.	8.aa/L]	.	.	2ee 2cc] 2d/))	.
.	(16bb/Jk	.	.	.	.
4f# 4A 4D\	4ee/)	4dd] 4cc\]	.	.	.
=95	=95	=95	=95	=95	=95
2f# 2A 2D\	[4aa/	[2dd [2cc\	.	8.aaL 8.a 8.d\	.
.	.	.	.	(16bbJk ([16cc\	.
.	8.aa/L]	.	.	2ee 2cc] 2d\))	.
.	(16bb/Jk	.	.	.	.
4f# 4A 4D\	4ee/)	4dd] 4cc\]	.	.	.
*	*v	*v	*	*	*
=96	=96	=96	=96	=96
4f# 4A 4D\	4aa 4dd 4cc\	.	8.aaL 8.a 8.d\	.
.	.	.	16bbJk 16cc\	.
4r	4r	.	4ee 4cc 4d/	.
4D\	4f# 4d 4c/	.	4ff# 4cc 4d/	.
=97	=97	=97	=97	=97
4G 4GG/	4g 4d 4B/	.	8.ggSSsL 8.b 8.d 8.G/	.
.	.	.	16ff#/Jk	.
4r	4r	.	4gg\	.
!	!	!	!LO:N:n=2:vis=2	!
4r	4r	.	[4gggg [4rccc [4rgg\	.
=98	=98	=98	=98	=98
!	!	!	!LO:TUP:a	!
!	!	!	!LO:N:n=2:vis=2	!
2.r	2.r	.	(12gggg]L 12rccc] 12rgg\]	.
!	!	!	!LO:N:n=2:vis=2	!
.	.	.	12ffff# 12rbb 12rff#^<\	.
!	!	!	!LO:N:n=2:vis=2	!
.	.	.	12ffffnJ 12rbb-X 12rffnX^<\	.
!	!	!	!LO:N:n=2:vis=2	!
.	.	.	16eeeeLL 16raa 16ree^<\	.
!	!	!	!LO:N:n=2:vis=2	!
.	.	.	16dddd#X 16rgg#X 16rdd#X^<\	.
!	!	!	!LO:N:n=2:vis=2	!
.	.	.	16ddddn 16rggnX 16rddnX^<\	.
!	!	!	!LO:N:n=2:vis=2	!
.	.	.	16cccc#XJJ 16rff#X 16rcc#X^<\	.
!	!	!	!LO:TUP:a	!
!	!	!	!LO:N:n=2:vis=2	!
.	.	.	12ccccnL 12rffnX 12rccnX^<\	.
!	!	!	!LO:N:n=2:vis=2	!
.	.	.	12bbb 12ree 12rb^<\	.
!	!	!	!LO:N:n=2:vis=2	!
.	.	.	12bbb-XJ 12ree-X 12rb-X^<\)	.
=99	=99	=99	=99	=99
*	*^	*	*	*
2f# 2A 2D\	[4aa/	2dd 2cc\	.	8.aaL 8.cc 8.d^^\	.
.	.	.	.	(16bbJk ([16cc\	.
!	!	!	!	!LO:N:n=3:vis=4	!
.	8.aa/L]	.	.	2ee 2cc] 2d\))	.
.	16bb/Jk	.	.	.	.
4f# 4A 4D\	4ee/	4dd 4cc\	.	.	.
=100	=100	=100	=100	=100	=100
2f# 2A 2D\	[4aa/	2dd 2cc\	.	8.aaL 8.a 8.d^^\	.
.	.	.	.	(16bbJk ([16cc\	.
!	!	!	!	!LO:N:n=3:vis=4	!
.	8.aa/L]	.	.	2ee 2cc] 2d\))	.
.	16bb/Jk	.	.	.	.
4f# 4A 4D\	4ee/	4dd 4cc\	.	.	.
*	*v	*v	*	*	*
!!LO:PB:g=original
=101	=101	=101	=101	=101
4f# 4A 4D\	4aa 4dd 4cc\	.	8.aaL 8.cc 8.d\	.
.	.	.	16bbJk 16cc 16d\	.
4r	4r	.	4ee 4cc 4d/	.
4D\	4f# 4d 4c/	.	4ff# 4cc 4d/	.
=102	=102	=102	=102	=102
4G 4GG/	4g 4d 4B/	.	8.ggL 8.b 8.d 8.G/	.
.	.	.	(16qqaa/LL	.
.	.	.	16qqgg/JJ	.
.	.	.	16ff#/Jk)	.
4r	4r	.	4gg\	.
!	!	!	!LO:N:n=2:vis=2	!
4r	4r	.	[4bbbb [4reee [4rbb\	.
=103	=103	=103	=103	=103
!	!	!	!LO:N:n=2:vis=2	!
2.r	2.r	.	(16bbbb]LL 16reee] 16rbb\]	.
!	!	!	!LO:N:n=2:vis=2	!
.	.	.	16aaaa#X 16rddd#X 16raa#X^<\	.
!	!	!	!LO:N:n=2:vis=2	!
.	.	.	16aaaan 16rdddnX 16raanX^<\	.
!	!	!	!LO:N:n=2:vis=2	!
.	.	.	16gggg#XJJ 16rccc#X 16rgg#X^<\	.
!	!	!	!LO:N:n=2:vis=2	!
.	.	.	16ggggnLL 16rcccnX 16rggnX^<\	.
!	!	!	!LO:N:n=2:vis=2	!
.	.	.	16ffff# 16rbb 16rff#^<\	.
!	!	!	!LO:N:n=2:vis=2	!
.	.	.	16ffffn 16rbb-X 16rffnX^<\	.
!	!	!	!LO:N:n=2:vis=2	!
.	.	.	16eeeeJJ 16raa 16ree^<\	.
!	!	!	!LO:N:n=2:vis=2	!
.	.	.	16dddd#XLL 16rgg#X 16rdd#X^<\	.
!	!	!	!LO:N:n=2:vis=2	!
.	.	.	16ddddn 16rggnX 16rddnX^<\	.
!	!	!	!LO:N:n=2:vis=2	!
.	.	.	16cccc#X 16rff#X 16rcc#X^<\	.
!	!	!	!LO:N:n=2:vis=2	!
.	.	.	16ccccnJJ 16rffnX 16rccnX^<\)	.
=104	=104	=104	=104	=104
!	!	!	!LO:N:n=2:vis=2	!
2.r	2.r	.	2bbb 2ree 2rb\	.
.	.	.	8.b\L	p
.	.	.	16b\Jk	.
!	!	!	!LO:TX:a:B:t=E:mod=	!
=105	=105	=105	=105	=105
!!LO:TX:B:t=:mod=E
4D#X\	4r	.	8.ccT\L	<
.	.	.	16b\Jk	.
4f# 4B 4A\	8.ccT\L	<	4ff#\	[
.	16b\Jk	.	.	.
4f# 4B 4A\	4ff#\	[[	4r	.
=106	=106	=106	=106	=106
4E\	4r	.	8.ccT\L	<
.	.	.	16b\Jk	.
4g 4e 4G\	8.ccT\L	<	4gg\	[
.	16b\Jk	.	.	.
4g 4e 4G\	4gg\	[[	4r	.
=107	=107	=107	=107	=107
4F#\	4r	.	8.ccT\L	<
.	.	.	16b\Jk	.
4a 4d#X 4B\	8.ccT\L	<	4aa\	[
.	16b\Jk	.	.	.
4a 4d# 4B\	4aa\	[[	4r	.
!!LO:LB:g=original
=108	=108	=108	=108	=108
4G\	4r	.	8.ccT\L	<
.	.	.	16b\Jk	.
4g 4e 4B\	8.ccT\L	<	[2bb\	[
.	16b\Jk	.	.	.
4g 4e 4B\	4bb\	[[	.	.
=109	=109	=109	=109	=109
2.GG/	4r	.	8bb\L]	.
.	.	.	8ggg\J	.
.	4g 4e 4B/	.	8fff#\L	.
.	.	.	8eee\J	.
!	!	!	!LO:TUP:a:problem:klamra łukowa	!
.	4g 4e 4B/	.	12aa#X\L	.
.	.	.	12.bb\	.
.	.	.	24ddd\Jk	.
=110	=110	=110	=110	=110
2.AA/	4r	.	(16ddd\LL	.
.	.	.	16ccc\)	.
.	.	.	16ddd'\	.
.	.	.	16ccc'\JJ	.
.	4f# 4e 4c/	.	(16ddd^\LL	.
.	.	.	16ccc^\	.
.	.	.	16bb^\	.
.	.	.	16aa^\JJ	.
.	4f# 4e 4c/	.	16gg^\LL	.
.	.	.	16ff#^\	.
.	.	.	16ee^\	.
.	.	.	16cc^\JJ)	.
=111	=111	=111	=111	=111
*	*^	*	*	*
2.BB/	4r	2rcyy	.	(8bSsS/L	.
.	.	.	.	16a#X/L	.
.	.	.	.	16b/JJ)	.
!	!LO:MO:mod=!LO&colon;TX&colon;i&colon;t=ritard.	!	!	!LO:MO:mod=!LO&colon;TX&colon;i&colon;t=ritard.	!
!	!LO:TX:b:i:t=ritard.	!	!	!LO:TX:b:i:t=ritard.	!
.	4g 4e 4B/	.	.	(4.bb\	.
!	!	!LO:SIC:s=8d#L(	!	!	!
.	4a 4B/	8d#X\L	.	.	.
!	!	!LO:SIC:s=8f#J)	!	!	!
.	.	8f#\J	.	8dd#X\)	.
*	*v	*v	*	*	*
=112	=112	=112	=112	=112
4E\	4r	.	(8.eeT\L	.
.	.	.	16dd#X\Jk)	.
4r	4g 4e 4B/	.	2ee\	.
4r	4r	.	.	.
=113	=113	=113	=113	=113
4C#X/	4r	.	(8.ee-XT\L	.
.	.	.	16ddn\Jk)	.
4r	4g 4e-X 4B-X/	.	2ee-;\	.
4r;	4r;	.	.	.
=114	=114	=114	=114	=114
!	!LO:TX:b:i:t=risoluto	!	!LO:TX:a:i:t=risoluto	!
4D\	4r	f	8.ddL 8.d^^\	f
.	.	.	16cccJk 16ee 16d\	.
4r	4f# 4d 4c/	.	4ee 4cc 4d/	.
4r	4f# 4d 4c/	.	4ff# 4cc 4d/	.
=115	=115	=115	=115	=115
4GG 4GGG/	4r	.	8gg 8b 8d 8G/	.
.	.	.	8r	.
.	.	.	(8qgg 8qb/	.
4r	4g 4d 4B/	.	8ggg 8bb\)	.
.	.	.	8r	.
.	.	.	8qggg 8qbb/	.
4GG 4GGG/	4g 4d 4B/	.	(8.ggL 8.b\	.
.	.	.	16ff#Jk 16dd\)	.
!!LO:PB:g=original
=116	=116	=116	=116	=116
4C 4CC/	4r	.	8.eeL 8.cc 8.g 8.c/	.
.	.	.	16dd#X/Jk	.
4r	4g 4e 4c/	.	4ee\	.
4AA 4AAA/	4a 4e 4c/	.	4ccc 4a\	.
=117	=117	=117	=117	=117
4D 4DD/	4r	.	8ff#L 8a 8d\	.
.	.	.	8ggJ 8b 8d\	.
.	.	.	8qbb/	.
4r	4a 4f# 4d 4c/	.	8aaL 8cc 8d\	.
.	.	.	8gg#XJ 8cc 8d\	.
4D 4DD/	4a 4f# 4d 4c/	.	8aaL 8cc 8d\	.
.	.	.	8aa#XJ 8cc 8d\	.
=118	=118	=118	=118	=118
4G 4GG/	4r	.	8bb 8b 8d 8G/	.
!	!	!	!LO:TUP:a:problem:klamra łukowa	!
.	.	.	24aaLL 24b\	.
.	.	.	24bb 24b\	.
.	.	.	24aaJJ 24b\	.
4r	4g 4d 4B/	.	8ggL 8b\	.
.	.	.	8eeJ 8b\	.
4D 4DD/	4f# 4d 4c/	.	8ddL 8d\	.
.	.	.	8ff#J 8a 8d\	.
=119	=119	=119	=119	=119
!	!	!	!LO:TUP:b	!
!	!	!	!LO:MO:mod=!LO&colon;TX&colon;i&colon;t=poco sostenuto	!
!	!	!	!LO:TX:b:i:t=poco sostenuto	!
4GG 4GGG/	4r	.	(24ggLL 24b 24d 24G/	.
.	.	.	24ddd 24b/)	.
.	.	.	24eee 24cc'/	.
.	.	.	24fff# 24dd'/	.
.	.	.	24ggg 24ee'/	.
.	.	.	24aaaJJ 24ff#'/	.
4r	4g 4d 4B/	.	8bbb 8gg\	.
.	.	.	8r	.
4GG 4GGG/	4g 4d#X 4B/	.	8.ggL 8.b\	.
.	.	.	16ff#Jk 16dd#X\	.
=120	=120	=120	=120	=120
4C 4CC/	4r	.	8.eeL 8.cc 8.g 8.c/	.
.	.	.	16dd#X/Jk	.
4r	4g 4e 4c/	.	4ee\	.
4AA 4AAA/	4a 4e 4c/	.	4eeee\	.
=121	=121	=121	=121	=121
4D 4DD/	4r	.	8d\L	.
.	.	.	8eeeJ 8ff# 8d\	.
4r	4a 4f# 4d 4c/	.	8dddL 8ff# 8d\	.
.	.	.	8cccJ 8ee 8d\	.
4D 4DD/	4a 4f# 4d 4c/	.	8eeL 8cc 8d\	.
.	.	.	8ff#J 8cc 8d\	.
=122	=122	=122	=122	=122
4GG 4GGG/	4g 4d 4B/	.	4gg 4b 4d 4G/	.
!	!	!	!LO:N:n=2:vis=2	!
4GG 4DD 4BBB 4GGG/	4gg 4dd 4b 4g\	.	4gggg/ 4rccc 4rgg 4b 4d 4G	.
4r;	4r;	.	4r;	.
==	==	==	==	==
*-	*-	*-	*-	*-
!!!system-decoration: s1{(s2,s3)}
!!!RDF**kern: > = above
!!!RDF**kern: < = below
!!!filter-modern: sic -sq | shed -e "s/:rj/:RJ/L" | shed -k -e "s/([^a-gA-Gn#X-])[<>]/$1/g" | shed -e "s/LO:DY:(a|rj)/LO:dy:$1/L" | shed -e "s/-//B" | autostem -r | tie -s  | modori -m
!!!ENC: Mateusz Solarz
!!!END: 2022-05-04
!!!ENC: Marta Lawrence
!!!END: 2022-05-14
!!!ENC-modern: Andrzej Borzym
!!!END-modern: 2022-07-15
!!!YEC: Copyright 2022 Narodowy Instytut Fryderyka Chopina (https://polishscores.org)
!!!YEM: License CC-BY-4.0 (https://creativecommons.org/licenses/by/4.0)
